X: 1
T: the West Wind
R: reel, march
Z: 1997 by John Chambers <jc:trillian.mit.edu>
M: 2/4
L: 1/8
K: D
|: "D"FA FA | FA d/c/B/A/ | FA FA | "A7"EA A2 \
|  "D"FA FA | FA d/c/B/A/ | dd "A7"e/f/g/e/ | "D"fd d2 :|
|: "D"fa ad | fa a>f | "G"g>e "D"f>d | "A7"ec BA \
|  "D"dA "A7"B/c/B/A/ |  "D"dA "A7"B/c/B/A/ | "D"dd "A7"e/f/g/e/ | "D"fd d2 :|
